X:14036
T:Red Haired Boy
M:4/4
R:Reel 
A:Ireland, Appalachia
K:AMix
AF|"A"E2A2 ABcd|efec "D"d2 cd|"A"edcB ABcA|"G"BAEF G3 F|
"A"E2A2 ABcd|efec "D"d2 cd|"A"e2 ag afed|[1c2A2 A3F:|[2c2A2 A2 ef||
"G"gfef gfef|gfec "D"d2 cd|"A"edcB ABcA|"G"BAEF G3F|
"A"E2A2 ABcd|efec "D"d2 cd|"A"e2 ag afed|[1c2 A2 A2 ef:|[2c2 A2 A2||
